!!!OTL: WER RECHT IN FREUDEN WANDERN WILL
!!!ARE: Europa, Mitteleuropa, Deutschland
!!!SCT: B0516
!!!YEM: Copyright 1995, estate of Helmut Schaffrath.
**kern
*ICvox
*Ivox
*M6/8
*k[b-e-]
*B-:
{8f
=1
4g
8d
4f
8d
=2
4b-
8g
4f}
{8f
=3
4b-
8f
4b-
8cc
=4
4.dd
8cc
8r}
{8f
=5
4g
8d
4f
8d
=6
4b-
8g
4f}
{8f
=7
4b-
8f
4b-
8cc
=8
4.dd
8cc
4r}
=9
{4cc
8b-
4a
8b-
=10
8cc
8dd
8b-
4.a}
=11
{4cc
8cc
4dd
8cc
=12
8b-
8cc
8dd
4cc}
{8b-
=13
4.b-
8f
8r
8dd
=14
4.dd
8b-
8r}
{8dd
=15
8.ff
16ee-
8dd
8cc
8b-
8cc
=16
4.dd
4.cc
=17
2b-
8r}
==
!!!AGN: Wander - Lied
!!!ONB: ESAC (Essen Associative Code) Database: BOEHME
!!!AMT: compound duple
!!!AIN: vox
!!!EED: Helmut Schaffrath
!!!EEV: 1.0
*-
